static/img/kroki/179034a97e72298d61277ce49531fb83.svg

<?xml version="1.0" encoding="us-ascii" standalone="no"?><svg xmlns="http://www.w3.org/2000/svg" xmlns:xlink="http://www.w3.org/1999/xlink" contentStyleType="text/css" height="374px" preserveAspectRatio="none" style="width:329px;height:374px;" version="1.1" viewBox="0 0 329 374" width="329px" zoomAndPan="magnify"><defs/><g><!--class aws_acm_certificate--><g id="elem_aws_acm_certificate"><rect codeLine="23" fill="#3D176E" height="39.7891" id="aws_acm_certificate" rx="2.5" ry="2.5" style="stroke:#000D19;stroke-width:0.5;" width="211" x="66" y="328.58"/><ellipse cx="81" cy="348.4745" fill="#ADD1B2" rx="11" ry="11" style="stroke:#181818;stroke-width:1.0;"/><path d="M83.9688,354.1152 Q83.3906,354.412 82.75,354.5527 Q82.1094,354.7089 81.4063,354.7089 Q78.9063,354.7089 77.5781,353.0683 Q76.2656,351.412 76.2656,348.287 Q76.2656,345.162 77.5781,343.5058 Q78.9063,341.8495 81.4063,341.8495 Q82.1094,341.8495 82.75,342.0058 Q83.4063,342.162 83.9688,342.4589 L83.9688,345.1777 Q83.3438,344.5995 82.75,344.3339 Q82.1563,344.0527 81.5313,344.0527 Q80.1875,344.0527 79.5,345.1308 Q78.8125,346.1933 78.8125,348.287 Q78.8125,350.3808 79.5,351.4589 Q80.1875,352.5214 81.5313,352.5214 Q82.1563,352.5214 82.75,352.2558 Q83.3438,351.9745 83.9688,351.3964 L83.9688,354.1152 Z " fill="#000000"/><text fill="#D9B8FF" font-family="Helvetica" font-size="17" lengthAdjust="spacing" textLength="169" x="100" y="354.3598">aws_acm_certificate</text></g><!--class aws_resource--><g id="elem_aws_resource"><rect codeLine="26" fill="#3D176E" height="39.7891" id="aws_resource" rx="2.5" ry="2.5" style="stroke:#000D19;stroke-width:0.5;" width="155" x="7" y="167.79"/><ellipse cx="22" cy="187.6845" fill="#ADD1B2" rx="11" ry="11" style="stroke:#181818;stroke-width:1.0;"/><path d="M24.9688,193.3252 Q24.3906,193.622 23.75,193.7627 Q23.1094,193.9189 22.4063,193.9189 Q19.9063,193.9189 18.5781,192.2783 Q17.2656,190.622 17.2656,187.497 Q17.2656,184.372 18.5781,182.7158 Q19.9063,181.0595 22.4063,181.0595 Q23.1094,181.0595 23.75,181.2158 Q24.4063,181.372 24.9688,181.6689 L24.9688,184.3877 Q24.3438,183.8095 23.75,183.5439 Q23.1563,183.2627 22.5313,183.2627 Q21.1875,183.2627 20.5,184.3408 Q19.8125,185.4033 19.8125,187.497 Q19.8125,189.5908 20.5,190.6689 Q21.1875,191.7314 22.5313,191.7314 Q23.1563,191.7314 23.75,191.4658 Q24.3438,191.1845 24.9688,190.6064 L24.9688,193.3252 Z " fill="#000000"/><text fill="#D9B8FF" font-family="Helvetica" font-size="17" lengthAdjust="spacing" textLength="113" x="41" y="193.5698">aws_resource</text></g><!--class certificate--><g id="elem_certificate"><rect codeLine="29" fill="#3D176E" height="39.7891" id="certificate" rx="2.5" ry="2.5" style="stroke:#000D19;stroke-width:0.5;" width="125" x="197" y="167.79"/><ellipse cx="212" cy="187.6845" fill="#ADD1B2" rx="11" ry="11" style="stroke:#181818;stroke-width:1.0;"/><path d="M214.9688,193.3252 Q214.3906,193.622 213.75,193.7627 Q213.1094,193.9189 212.4063,193.9189 Q209.9063,193.9189 208.5781,192.2783 Q207.2656,190.622 207.2656,187.497 Q207.2656,184.372 208.5781,182.7158 Q209.9063,181.0595 212.4063,181.0595 Q213.1094,181.0595 213.75,181.2158 Q214.4063,181.372 214.9688,181.6689 L214.9688,184.3877 Q214.3438,183.8095 213.75,183.5439 Q213.1563,183.2627 212.5313,183.2627 Q211.1875,183.2627 210.5,184.3408 Q209.8125,185.4033 209.8125,187.497 Q209.8125,189.5908 210.5,190.6689 Q211.1875,191.7314 212.5313,191.7314 Q213.1563,191.7314 213.75,191.4658 Q214.3438,191.1845 214.9688,190.6064 L214.9688,193.3252 Z " fill="#000000"/><text fill="#D9B8FF" font-family="Helvetica" font-size="17" lengthAdjust="spacing" textLength="83" x="231" y="193.5698">certificate</text></g><!--class resource--><g id="elem_resource"><rect codeLine="32" fill="#3D176E" height="39.7891" id="resource" rx="2.5" ry="2.5" style="stroke:#000D19;stroke-width:0.5;" width="113" x="115" y="7"/><ellipse cx="130" cy="26.8945" fill="#ADD1B2" rx="11" ry="11" style="stroke:#181818;stroke-width:1.0;"/><path d="M132.9688,32.5352 Q132.3906,32.832 131.75,32.9727 Q131.1094,33.1289 130.4063,33.1289 Q127.9063,33.1289 126.5781,31.4883 Q125.2656,29.832 125.2656,26.707 Q125.2656,23.582 126.5781,21.9258 Q127.9063,20.2695 130.4063,20.2695 Q131.1094,20.2695 131.75,20.4258 Q132.4063,20.582 132.9688,20.8789 L132.9688,23.5977 Q132.3438,23.0195 131.75,22.7539 Q131.1563,22.4727 130.5313,22.4727 Q129.1875,22.4727 128.5,23.5508 Q127.8125,24.6133 127.8125,26.707 Q127.8125,28.8008 128.5,29.8789 Q129.1875,30.9414 130.5313,30.9414 Q131.1563,30.9414 131.75,30.6758 Q132.3438,30.3945 132.9688,29.8164 L132.9688,32.5352 Z " fill="#000000"/><text fill="#D9B8FF" font-family="Helvetica" font-size="17" lengthAdjust="spacing" textLength="71" x="149" y="32.7798">resource</text></g><!--reverse link aws_resource to aws_acm_certificate--><g id="link_aws_resource_aws_acm_certificate"><path codeLine="35" d="M103.6423,223.6241 C120.3723,254.1441 144.22,297.69 160.97,328.25 " fill="none" id="aws_resource-backto-aws_acm_certificate" style="stroke:#FFAF37;stroke-width:2.0;"/><polygon fill="none" points="94.99,207.84,98.3809,226.5082,108.9037,220.74,94.99,207.84" style="stroke:#FFAF37;stroke-width:2.0;"/></g><!--reverse link certificate to aws_acm_certificate--><g id="link_certificate_aws_acm_certificate"><path codeLine="36" d="M240.1624,223.5826 C223.2424,254.1026 199.09,297.69 182.15,328.25 " fill="none" id="certificate-backto-aws_acm_certificate" style="stroke:#FFAF37;stroke-width:2.0;"/><polygon fill="none" points="248.89,207.84,234.9149,220.6734,245.41,226.4918,248.89,207.84" style="stroke:#FFAF37;stroke-width:2.0;"/></g><!--reverse link resource to aws_resource--><g id="link_resource_aws_resource"><path codeLine="37" d="M152.3577,62.8341 C135.6277,93.3541 111.78,136.9 95.03,167.46 " fill="none" id="resource-backto-aws_resource" style="stroke:#FFAF37;stroke-width:2.0;"/><polygon fill="none" points="161.01,47.05,147.0963,59.95,157.6191,65.7182,161.01,47.05" style="stroke:#FFAF37;stroke-width:2.0;"/></g><!--reverse link resource to certificate--><g id="link_resource_certificate"><path codeLine="38" d="M190.8376,62.7926 C207.7576,93.3126 231.91,136.9 248.85,167.46 " fill="none" id="resource-backto-certificate" style="stroke:#FFAF37;stroke-width:2.0;"/><polygon fill="none" points="182.11,47.05,185.59,65.7018,196.0851,59.8834,182.11,47.05" style="stroke:#FFAF37;stroke-width:2.0;"/></g><!--SRC=[XP1BRy8m48Jl-HMME2E5eXOYzK8ZLUq5LQLtjDXhOf7OqNffH1__lQIKodd1TURRsTdDZ4A1HSa7KM2nGVAHtnbR0a4X5aIkIbtkI8oq1ZsTjSr7P_agi8G2nHFcxyX6GfjuoupSMVHUt0JM0yZTbjpUgbCy4rX_jD1oGAKvUBzW9hFPCmPbLBAPQzqcsw6ZgPhCxh23EL98VqWSnsgIj96hgoxU_K-ip0UAIVYqfMFirEoi-AKkjgo9e6JdqBC_sF45b39sAsu3xVNKYInIGrzbe5nLqnfo7wxnZ8IE3oMcdQimcIizwuMVX-18rgyJKFaro68jaTZeOt56yHb5tu5DwDsUP4CVm9jeO_Z-QpmUzwsBmgnXgYVeBBMzSEm7]--></g></svg>

<svg xmlns="http://www.w3.org/2000/svg" width="329" height="374" viewBox="0 0 329 374"><rect width="211" height="39.789" x="66" y="328.58" fill="#3D176E" rx="2.5" ry="2.5" style="stroke:#000d19;stroke-width:.5"/><circle cx="81" cy="348.474" r="11" fill="#ADD1B2" style="stroke:#181818;stroke-width:1"/><path d="M83.969 354.115q-.578.297-1.219.438-.64.156-1.344.156-2.5 0-3.828-1.64-1.312-1.657-1.312-4.782t1.312-4.781q1.328-1.656 3.828-1.656.703 0 1.344.156.656.156 1.219.453v2.719q-.625-.579-1.219-.844-.594-.281-1.219-.281-1.344 0-2.031 1.078-.687 1.062-.687 3.156t.687 3.172q.688 1.062 2.031 1.062.625 0 1.219-.265.594-.281 1.219-.86z"/><text x="100" y="354.36" fill="#D9B8FF" font-family="Helvetica" font-size="17" textLength="169">aws_acm_certificate</text><rect width="155" height="39.789" x="7" y="167.79" fill="#3D176E" rx="2.5" ry="2.5" style="stroke:#000d19;stroke-width:.5"/><circle cx="22" cy="187.685" r="11" fill="#ADD1B2" style="stroke:#181818;stroke-width:1"/><path d="M24.969 193.325q-.578.297-1.219.438-.64.156-1.344.156-2.5 0-3.828-1.64-1.312-1.657-1.312-4.782t1.312-4.781q1.328-1.656 3.828-1.656.703 0 1.344.156.656.156 1.219.453v2.719q-.625-.578-1.219-.844-.594-.281-1.219-.281-1.343 0-2.031 1.078-.687 1.062-.687 3.156t.687 3.172q.688 1.062 2.031 1.062.625 0 1.219-.265.594-.281 1.219-.86z"/><text x="41" y="193.57" fill="#D9B8FF" font-family="Helvetica" font-size="17" textLength="113">aws_resource</text><rect width="125" height="39.789" x="197" y="167.79" fill="#3D176E" rx="2.5" ry="2.5" style="stroke:#000d19;stroke-width:.5"/><circle cx="212" cy="187.685" r="11" fill="#ADD1B2" style="stroke:#181818;stroke-width:1"/><path d="M214.969 193.325q-.578.297-1.219.438-.64.156-1.344.156-2.5 0-3.828-1.64-1.312-1.657-1.312-4.782t1.312-4.781q1.328-1.656 3.828-1.656.703 0 1.344.156.656.156 1.219.453v2.719q-.625-.578-1.219-.844-.594-.281-1.219-.281-1.344 0-2.031 1.078-.687 1.062-.687 3.156t.687 3.172q.688 1.062 2.031 1.062.625 0 1.219-.265.594-.281 1.219-.86z"/><text x="231" y="193.57" fill="#D9B8FF" font-family="Helvetica" font-size="17" textLength="83">certificate</text><rect width="113" height="39.789" x="115" y="7" fill="#3D176E" rx="2.5" ry="2.5" style="stroke:#000d19;stroke-width:.5"/><circle cx="130" cy="26.895" r="11" fill="#ADD1B2" style="stroke:#181818;stroke-width:1"/><path d="M132.969 32.535q-.578.297-1.219.438-.64.156-1.344.156-2.5 0-3.828-1.64-1.312-1.657-1.312-4.782t1.312-4.781q1.328-1.656 3.828-1.656.703 0 1.344.156.656.156 1.219.453v2.719q-.625-.578-1.219-.844-.594-.281-1.219-.281-1.344 0-2.031 1.078-.687 1.062-.687 3.156t.687 3.172q.688 1.062 2.031 1.062.625 0 1.219-.265.594-.281 1.219-.86z"/><text x="149" y="32.78" fill="#D9B8FF" font-family="Helvetica" font-size="17" textLength="71">resource</text><g fill="none"><path d="M103.642 223.624c16.73 30.52 40.578 74.066 57.328 104.626" style="stroke:#ffaf37;stroke-width:2"/><path d="m94.99 207.84 3.39 18.668 10.524-5.768z" style="stroke:#ffaf37;stroke-width:2"/></g><path fill="none" d="M240.162 223.583c-16.92 30.52-41.072 74.107-58.012 104.667m66.74-120.41-13.975 12.833 10.495 5.819z" style="stroke:#ffaf37;stroke-width:2"/><g fill="none"><path d="M152.358 62.834C135.628 93.354 111.78 136.9 95.03 167.46" style="stroke:#ffaf37;stroke-width:2"/><path d="m161.01 47.05-13.914 12.9 10.523 5.768z" style="stroke:#ffaf37;stroke-width:2"/></g><path fill="none" d="M190.838 62.793c16.92 30.52 41.072 74.107 58.012 104.667M182.11 47.05l3.48 18.652 10.495-5.819z" style="stroke:#ffaf37;stroke-width:2"/></svg>
